X:0699
T:Miss Montgomery's Reel.
M:C|
L:1/8
N:upbeat printed as d>B
Q:1/4=120
I: :: :|
Z:Jack Campin * www.campin.me.uk * 2009
K:D
d/>B/|AFFE/F/ GEEF/G/|AFFE/F/ A2 d>B|AFFE/F/ GEEF/G/|A>F D/E/F/G/ A2d:|
A    |d>eff   gfed   |d>eff   g2 b2 |affe/f/ gfed   |dA  B/A/B/c/ d2D:|
<end>
<start>
